X:22
T: Et war emol e Miller stolz, S. 20
N: R0046
O: Luxemburg
S: D'Fraen um Kanddaaf an der aler Zeit, Luxemburg 1929]
R: ??, Ballade?]
M: 2/4
L: 1/16
K: C
G2 | GGGGG2G2 | A4
E3F | A3GG2G2 | G2z
EE2E2 | EEDEF4 | D2F2A4 | D2F2A4
EEEED2D2 | C6

